X: 10
T: The Soft Shoe Hornpipe
C: Muriel Johnstone 1998
P: Tune for "Mr. Hamilton's Hornpipe"
B: Roy Goldring "14 Social Dances for 2000"
R: reel
Z: 2015 John Chambers <jc:trillian.mit.edu>
M: 4/4
L: 1/8
K: G
dc |\
"G"Bdd2 "G7"BcdB | "C"c2e2- efge | "Am"a2A2 ABcA | "D"d2D2 "D7"D2dc |
"G"Bdd2 "G7"BcdB | "C"cee2 efge | "Am"aA-AB "D7"cBcA | "G"B2"C"G2 "G"G2 :|
ba |\
"G"g2G2 "D"f2F2 | "C"e2E2 "G"d2D2 | "Am"c2A2- ABcA | "D7"d2D2 D2ba |
"Em"g2G2 "D"f2F2 | "C"e2E2 "G"d2D2 | "Am"cA-AB "D7"cBcA | "G"B2"C"G2 "G"G2 |]
ba |\
"Em"b2G2 "D"f2F2 | "C"e2E2 "G"d2D2 | "Am"c2A2- ABcA | "D"d2D2 "D7"D2dc |
"G"Bdd2 "G7"BcdB | "C"cee2 efge | "Am"aA-AB "D7"cBcA | "G"B2"C"G2 "G"G2 |]

%%sep 1 1 500
%%sep 1 1 500

